loleaflet/images/lc_selectwidth.svg

<svg viewBox="0 0 24 24" xmlns="http://www.w3.org/2000/svg"><path d="m5.484375 9c-.130048.0041-.25337.0587498-.34375.1523438l-2.9160156 2.9121092c-.173289.160599-.2230094.266429-.2246094.435547.0016.169118.0513204.274898.2246094.435547l2.9160156 2.912109c.09038.09359.213702.148244.34375.152344.454318.0115.6868471-.540283.3613281-.857422l-2.1484375-2.144531h2.8183594c.0036959-.00013.0060299.002145.0097656.001953h5.4746094 5.474609c.003736.000192.00607-.002083.009766-.001953h2.818359l-2.148437 2.144531c-.325519.317139-.09299.868922.361328.857422.130048-.0041.25337-.058754.34375-.152344l2.916016-2.912109c.173289-.160649.223009-.266429.224609-.435547-.0016-.169118-.05132-.274948-.224609-.435547l-2.916016-2.9121092c-.09038-.093594-.213702-.1482438-.34375-.1523438-.454318-.011504-.686847.5402829-.361328.8574219l2.148437 2.1445311h-2.818359c-.003696.000129-.00603-.002144-.009766-.001953h-5.474609-5.4746094c-.0037357-.000191-.0060697.002082-.0097656.001953h-2.8183594l2.1484375-2.1445311c.325519-.317139.0929899-.8689259-.3613281-.8574219z" fill="#1e8bcd" fill-rule="evenodd"/></svg>

<?xml version="1.0" encoding="UTF-8" standalone="no"?>
<svg
   xmlns:dc="http://purl.org/dc/elements/1.1/"
   xmlns:cc="http://creativecommons.org/ns#"
   xmlns:rdf="http://www.w3.org/1999/02/22-rdf-syntax-ns#"
   xmlns:svg="http://www.w3.org/2000/svg"
   xmlns="http://www.w3.org/2000/svg"
   xmlns:sodipodi="http://sodipodi.sourceforge.net/DTD/sodipodi-0.dtd"
   xmlns:inkscape="http://www.inkscape.org/namespaces/inkscape"
   version="1.1"
   viewBox="0 0 24 24"
   id="svg6"
   sodipodi:docname="lc_selectwidth.svg"
   inkscape:version="0.92.5 (2060ec1f9f, 2020-04-08)">
  <metadata
     id="metadata12">
    <rdf:RDF>
      <cc:Work
         rdf:about="">
        <dc:format>image/svg+xml</dc:format>
        <dc:type
           rdf:resource="http://purl.org/dc/dcmitype/StillImage" />
        <dc:title></dc:title>
      </cc:Work>
    </rdf:RDF>
  </metadata>
  <defs
     id="defs10" />
  <sodipodi:namedview
     pagecolor="#ffffff"
     bordercolor="#666666"
     borderopacity="1"
     objecttolerance="10"
     gridtolerance="10"
     guidetolerance="10"
     inkscape:pageopacity="0"
     inkscape:pageshadow="2"
     inkscape:window-width="1366"
     inkscape:window-height="700"
     id="namedview8"
     showgrid="true"
     inkscape:zoom="13.906434"
     inkscape:cx="4.2497577"
     inkscape:cy="10.695224"
     inkscape:window-x="0"
     inkscape:window-y="0"
     inkscape:window-maximized="1"
     inkscape:current-layer="svg6"
     inkscape:snap-smooth-nodes="true">
    <inkscape:grid
       type="xygrid"
       id="grid822" />
  </sodipodi:namedview>
  <path
     style="fill:#1e8bcd;fill-rule:evenodd"
     d="M 5.484375 9 C 5.354327 9.0041 5.231005 9.0587498 5.140625 9.1523438 L 2.2246094 12.064453 C 2.0513204 12.225052 2.0016 12.330882 2 12.5 C 2.0016 12.669118 2.0513204 12.774898 2.2246094 12.935547 L 5.140625 15.847656 C 5.231005 15.941246 5.354327 15.9959 5.484375 16 C 5.938693 16.0115 6.1712221 15.459717 5.8457031 15.142578 L 3.6972656 12.998047 L 6.515625 12.998047 C 6.5193209 12.997917 6.5216549 13.000192 6.5253906 13 L 12 13 L 17.474609 13 C 17.478345 13.000192 17.480679 12.997917 17.484375 12.998047 L 20.302734 12.998047 L 18.154297 15.142578 C 17.828778 15.459717 18.061307 16.0115 18.515625 16 C 18.645673 15.9959 18.768995 15.941246 18.859375 15.847656 L 21.775391 12.935547 C 21.94868 12.774898 21.9984 12.669118 22 12.5 C 21.9984 12.330882 21.94868 12.225052 21.775391 12.064453 L 18.859375 9.1523438 C 18.768995 9.0587498 18.645673 9.0041 18.515625 9 C 18.061307 8.988496 17.828778 9.5402829 18.154297 9.8574219 L 20.302734 12.001953 L 17.484375 12.001953 C 17.480679 12.002082 17.478345 11.999809 17.474609 12 L 12 12 L 6.5253906 12 C 6.5216549 11.999809 6.5193209 12.002082 6.515625 12.001953 L 3.6972656 12.001953 L 5.8457031 9.8574219 C 6.1712221 9.5402829 5.938693 8.988496 5.484375 9 z "
     id="path8-3" />
</svg>
